packages/core/src/svgs/vis.svg

<svg width="24" height="24" viewBox="0 0 24 24" fill="none" xmlns="http://www.w3.org/2000/svg">
<g clip-path="url(#clip0_31_20464)">
<path d="M0 0H24V24H0V0Z" fill="#F0F3FA"/>
<path d="M12 17.1426C14.8404 17.1426 17.1429 14.8401 17.1429 11.9998C17.1429 9.15947 14.8404 6.85693 12 6.85693C9.15971 6.85693 6.85718 9.15947 6.85718 11.9998C6.85718 14.8401 9.15971 17.1426 12 17.1426Z" fill="url(#paint0_linear_31_20464)"/>
<path fill-rule="evenodd" clip-rule="evenodd" d="M7.73994 11.5369L8.97851 9.88693C8.98458 9.87867 8.98748 9.8685 8.9867 9.85828C8.98591 9.84806 8.98148 9.83846 8.97422 9.83122L8.81565 9.67265C8.8078 9.66464 8.8034 9.65386 8.8034 9.64265C8.8034 9.63143 8.8078 9.62066 8.81565 9.61265L10.0585 8.36979C10.0664 8.36171 10.0772 8.35709 10.0885 8.35693H10.6971C10.7078 8.35795 10.7185 8.35489 10.7271 8.34836L11.8714 7.39265C11.9057 7.36693 11.9571 7.40122 11.9357 7.44408L11.5799 8.33122C11.5774 8.33847 11.5768 8.34628 11.5783 8.35382C11.5799 8.36136 11.5834 8.36836 11.5885 8.37408C11.6657 8.46836 11.7857 8.68693 11.7857 8.99979C11.7857 9.42836 11.7857 9.85693 11.5714 10.0712C11.4085 10.2341 10.8857 10.3926 10.3671 10.5555L9.86994 10.7098C9.86111 10.713 9.85358 10.719 9.84851 10.7269L9.44137 11.3355C9.4376 11.342 9.43562 11.3494 9.43562 11.3569C9.43562 11.3645 9.4376 11.3718 9.44137 11.3784L9.62994 11.7598C9.63337 11.7676 9.63438 11.7763 9.63286 11.7847C9.63133 11.7931 9.62733 11.8008 9.62137 11.8069L9.02137 12.4069C9.01395 12.4125 9.00492 12.4155 8.99565 12.4155C8.98638 12.4155 8.97736 12.4125 8.96994 12.4069L7.75279 11.5926C7.74417 11.5866 7.73809 11.5775 7.73572 11.5672C7.73334 11.557 7.73485 11.5462 7.73994 11.5369ZM9.21422 9.64265L9.42851 9.85693L9.64279 9.42836L9.21422 9.64265ZM11.2714 13.5126L15.8571 7.92836L17.1428 9.85693L12.2657 13.3112C12.4371 13.3498 12.6085 13.4226 12.7457 13.5255L17.1428 10.9284V12.6426L13.1699 14.0355C13.2257 14.1641 13.2685 14.3055 13.2814 14.4555L16.7099 13.4998V14.9998H13.2128C13.1564 15.1596 13.0691 15.3067 12.9557 15.4326L16.2857 15.6426L15.6428 16.2855L12.6942 15.6555L12.5785 15.7198L14.5714 16.7141L13.7142 16.9284L11.7857 15.8569L11.8199 15.8441C11.5638 15.8076 11.3246 15.6947 11.1337 15.5202C10.9427 15.3456 10.8088 15.1175 10.7496 14.8657C10.6903 14.6138 10.7084 14.35 10.8015 14.1086C10.8946 13.8672 11.0584 13.6595 11.2714 13.5126ZM12.8571 14.5712C12.8571 14.7985 12.7668 15.0166 12.606 15.1773C12.4453 15.3381 12.2273 15.4284 11.9999 15.4284C11.7726 15.4284 11.5546 15.3381 11.3938 15.1773C11.2331 15.0166 11.1428 14.7985 11.1428 14.5712C11.1428 14.3439 11.2331 14.1259 11.3938 13.9651C11.5546 13.8044 11.7726 13.7141 11.9999 13.7141C12.2273 13.7141 12.4453 13.8044 12.606 13.9651C12.7668 14.1259 12.8571 14.3439 12.8571 14.5712ZM10.4999 14.7855L9.42851 16.0712L11.1428 16.9284H13.0714C12.8785 16.7998 12.5999 16.6584 12.2914 16.4998C11.9142 16.3069 11.4942 16.0926 11.1428 15.8569C10.9607 15.7395 10.8081 15.5818 10.6966 15.3961C10.5852 15.2103 10.5179 15.0014 10.4999 14.7855ZM10.7142 13.9284L13.7142 10.0712L11.9999 8.99979C11.9999 9.56979 11.6999 10.7569 10.4999 10.9284C10.7142 11.7126 10.7142 13.2855 10.7142 13.9284ZM11.9999 14.9998C12.1136 14.9998 12.2226 14.9546 12.303 14.8743C12.3834 14.7939 12.4285 14.6849 12.4285 14.5712C12.4285 14.4576 12.3834 14.3485 12.303 14.2682C12.2226 14.1878 12.1136 14.1426 11.9999 14.1426C11.8863 14.1426 11.7773 14.1878 11.6969 14.2682C11.6165 14.3485 11.5714 14.4576 11.5714 14.5712C11.5714 14.6849 11.6165 14.7939 11.6969 14.8743C11.7773 14.9546 11.8863 14.9998 11.9999 14.9998Z" fill="url(#paint1_linear_31_20464)"/>
<path d="M7.58993 12.8741L7.7785 13.8726L8.36564 12.8741H8.66564L7.8985 14.1298H7.55564L7.28564 12.8741H7.58993ZM9.12422 12.8741L8.87136 14.1298H8.5885L8.83707 12.8741H9.12422ZM9.68564 14.1426C9.5485 14.1426 9.4285 14.1126 9.3385 14.0569C9.29614 14.033 9.26103 13.9981 9.23689 13.9558C9.21275 13.9136 9.20047 13.8656 9.20136 13.8169C9.20192 13.8012 9.20335 13.7854 9.20564 13.7698H9.49707C9.4885 13.8169 9.50564 13.8598 9.53993 13.8941C9.5785 13.9241 9.62993 13.9412 9.6985 13.9412C9.75535 13.9441 9.81183 13.9307 9.86136 13.9026C9.88012 13.8908 9.8955 13.8744 9.90602 13.8548C9.91653 13.8353 9.92182 13.8134 9.92136 13.7912C9.92136 13.7484 9.89993 13.7141 9.85707 13.6841C9.8185 13.6584 9.75422 13.6284 9.66422 13.5984C9.59715 13.573 9.53135 13.5444 9.46707 13.5126C9.41752 13.4877 9.37373 13.4527 9.3385 13.4098C9.30237 13.3602 9.28423 13.2997 9.28707 13.2384C9.28707 13.1612 9.3085 13.0926 9.35136 13.0369C9.39422 12.9812 9.4585 12.9341 9.53993 12.9041C9.61707 12.8741 9.71136 12.8569 9.80993 12.8569C9.9085 12.8569 9.9985 12.8741 10.0671 12.8998C10.1442 12.9298 10.1956 12.9726 10.2385 13.0284C10.2728 13.0798 10.2899 13.1441 10.2814 13.2169H9.98136V13.1955C9.98136 13.1526 9.9685 13.1226 9.93422 13.0969C9.89395 13.0694 9.84578 13.0559 9.79707 13.0584C9.74249 13.0567 9.6887 13.0717 9.64279 13.1012C9.62436 13.1124 9.60915 13.1281 9.59863 13.1469C9.58811 13.1656 9.58265 13.1868 9.58279 13.2084C9.58279 13.2384 9.59564 13.2641 9.61707 13.2855C9.6385 13.3069 9.66422 13.3284 9.70279 13.3455L9.83993 13.4055L10.0371 13.4912C10.0869 13.5194 10.1307 13.5573 10.1656 13.6026C10.2042 13.6455 10.2214 13.7055 10.2214 13.7741C10.2208 13.8429 10.1966 13.9095 10.1528 13.9626C10.1044 14.0227 10.0408 14.0686 9.9685 14.0955C9.88707 14.1255 9.79707 14.1426 9.68993 14.1426H9.68564Z" fill="#7A4500"/>
<path fill-rule="evenodd" clip-rule="evenodd" d="M12.0001 17.1429C12.6754 17.1429 13.3442 17.0099 13.9682 16.7515C14.5921 16.493 15.1591 16.1142 15.6366 15.6366C16.1142 15.1591 16.493 14.5921 16.7515 13.9682C17.0099 13.3442 17.1429 12.6754 17.1429 12.0001C17.1429 11.3247 17.0099 10.6559 16.7515 10.032C16.493 9.40802 16.1142 8.84108 15.6366 8.36352C15.1591 7.88596 14.5921 7.50714 13.9682 7.24869C13.3442 6.99024 12.6754 6.85721 12.0001 6.85721C10.6361 6.85721 9.32799 7.39905 8.36352 8.36352C7.39905 9.32799 6.85721 10.6361 6.85721 12.0001C6.85721 13.364 7.39905 14.6721 8.36352 15.6366C9.32799 16.6011 10.6361 17.1429 12.0001 17.1429ZM12.0001 19.2858C13.9324 19.2858 15.7855 18.5182 17.1518 17.1518C18.5182 15.7855 19.2858 13.9324 19.2858 12.0001C19.2858 10.0678 18.5182 8.21463 17.1518 6.84829C15.7855 5.48196 13.9324 4.71436 12.0001 4.71436C10.0678 4.71436 8.21463 5.48196 6.84829 6.84829C5.48196 8.21463 4.71436 10.0678 4.71436 12.0001C4.71436 13.9324 5.48196 15.7855 6.84829 17.1518C8.21463 18.5182 10.0678 19.2858 12.0001 19.2858Z" fill="url(#paint2_linear_31_20464)"/>
<path fill-rule="evenodd" clip-rule="evenodd" d="M17.3572 12.0001C17.3572 13.4209 16.7928 14.7835 15.7881 15.7881C14.7835 16.7928 13.4209 17.3572 12.0001 17.3572C10.5793 17.3572 9.21666 16.7928 8.212 15.7881C7.20734 14.7835 6.64293 13.4209 6.64293 12.0001C6.64293 10.5793 7.20734 9.21666 8.212 8.212C9.21666 7.20734 10.5793 6.64293 12.0001 6.64293C13.4209 6.64293 14.7835 7.20734 15.7881 8.212C16.7928 9.21666 17.3572 10.5793 17.3572 12.0001ZM12.0001 19.0715C13.8755 19.0715 15.6742 18.3265 17.0003 17.0003C18.3265 15.6742 19.0715 13.8755 19.0715 12.0001C19.0715 10.1246 18.3265 8.32597 17.0003 6.99982C15.6742 5.67366 13.8755 4.92864 12.0001 4.92864C10.1246 4.92864 8.32597 5.67366 6.99982 6.99982C5.67366 8.32597 4.92864 10.1246 4.92864 12.0001C4.92864 13.8755 5.67366 15.6742 6.99982 17.0003C8.32597 18.3265 10.1246 19.0715 12.0001 19.0715ZM17.1429 12.0001C17.1429 12.6754 17.0099 13.3442 16.7515 13.9682C16.493 14.5921 16.1142 15.1591 15.6366 15.6366C15.1591 16.1142 14.5921 16.493 13.9682 16.7515C13.3442 17.0099 12.6754 17.1429 12.0001 17.1429C11.3247 17.1429 10.6559 17.0099 10.032 16.7515C9.40802 16.493 8.84108 16.1142 8.36352 15.6366C7.88596 15.1591 7.50714 14.5921 7.24869 13.9682C6.99024 13.3442 6.85721 12.6754 6.85721 12.0001C6.85721 10.6361 7.39905 9.32799 8.36352 8.36352C9.32799 7.39905 10.6361 6.85721 12.0001 6.85721C13.364 6.85721 14.6721 7.39905 15.6366 8.36352C16.6011 9.32799 17.1429 10.6361 17.1429 12.0001ZM19.2858 12.0001C19.2858 13.9324 18.5182 15.7855 17.1518 17.1518C15.7855 18.5182 13.9324 19.2858 12.0001 19.2858C10.0678 19.2858 8.21463 18.5182 6.84829 17.1518C5.48196 15.7855 4.71436 13.9324 4.71436 12.0001C4.71436 10.0678 5.48196 8.21463 6.84829 6.84829C8.21463 5.48196 10.0678 4.71436 12.0001 4.71436C13.9324 4.71436 15.7855 5.48196 17.1518 6.84829C18.5182 8.21463 19.2858 10.0678 19.2858 12.0001Z" fill="url(#paint3_linear_31_20464)"/>
</g>
<defs>
<linearGradient id="paint0_linear_31_20464" x1="12" y1="6.85693" x2="12" y2="17.1426" gradientUnits="userSpaceOnUse">
<stop stop-color="#F0D242"/>
<stop offset="0.2" stop-color="#FEF76F"/>
<stop offset="0.54" stop-color="#E1AF1B"/>
<stop offset="1" stop-color="#C27800"/>
</linearGradient>
<linearGradient id="paint1_linear_31_20464" x1="12.4371" y1="7.38408" x2="12.4371" y2="16.9284" gradientUnits="userSpaceOnUse">
<stop stop-color="#B76A00"/>
<stop offset="1" stop-color="#603800"/>
</linearGradient>
<linearGradient id="paint2_linear_31_20464" x1="12.0001" y1="4.71436" x2="12.0001" y2="19.2858" gradientUnits="userSpaceOnUse">
<stop stop-color="#C68A00"/>
<stop offset="0.53" stop-color="#FCF571"/>
<stop offset="1" stop-color="#B27801"/>
</linearGradient>
<linearGradient id="paint3_linear_31_20464" x1="12.0001" y1="4.71436" x2="12.0001" y2="19.2858" gradientUnits="userSpaceOnUse">
<stop stop-color="#AE714D"/>
<stop offset="0.17" stop-color="#823300"/>
<stop offset="0.53" stop-color="#F6EC27"/>
<stop offset="1" stop-color="#E4B000"/>
</linearGradient>
<clipPath id="clip0_31_20464">
<rect width="24" height="24" fill="white"/>
</clipPath>
</defs>
</svg>

<svg xmlns="http://www.w3.org/2000/svg" width="24" height="24" fill="none" viewBox="0 0 24 24"><g clip-path="url(#a)"><path fill="#F0F3FA" d="M0 0h24v24H0z"/><path fill="url(#b)" d="M12 17.143a5.143 5.143 0 1 0 0-10.286 5.143 5.143 0 0 0 0 10.286"/><path fill="url(#c)" fill-rule="evenodd" d="m7.74 11.537 1.239-1.65a.043.043 0 0 0-.005-.056l-.158-.158a.043.043 0 0 1 0-.06l1.242-1.243a.04.04 0 0 1 .03-.013h.61a.04.04 0 0 0 .03-.009l1.143-.955c.035-.026.086.008.065.051l-.356.887a.04.04 0 0 0 .008.043c.078.094.198.313.198.626 0 .428 0 .857-.215 1.071-.162.163-.685.322-1.204.485l-.497.154a.04.04 0 0 0-.021.017l-.408.608a.04.04 0 0 0 0 .043l.189.382a.04.04 0 0 1-.009.047l-.6.6a.04.04 0 0 1-.051 0l-1.217-.814a.043.043 0 0 1-.013-.056m1.474-1.894.215.214.214-.429zm2.057 3.87 4.586-5.585 1.286 1.929-4.877 3.454c.171.039.342.112.48.214l4.397-2.597v1.715l-3.973 1.393c.056.128.098.27.111.42l3.429-.956V15h-3.497c-.057.16-.144.307-.257.433l3.33.21-.643.642-2.949-.63-.116.065 1.993.994-.857.214-1.928-1.071.034-.013a1.286 1.286 0 0 1-.549-2.331m1.586 1.058a.857.857 0 1 1-1.714 0 .857.857 0 0 1 1.714 0m-2.357.215L9.429 16.07l1.714.857h1.928c-.192-.128-.471-.27-.78-.428-.377-.193-.797-.407-1.148-.643a1.42 1.42 0 0 1-.643-1.071m.214-.858 3-3.857L12 9c0 .57-.3 1.757-1.5 1.928.214.785.214 2.358.214 3M12 15a.429.429 0 1 0 0-.858.429.429 0 0 0 0 .858" clip-rule="evenodd"/><path fill="#7A4500" d="m7.59 12.874.189.999.587-.999h.3l-.768 1.256h-.342l-.27-1.256zm1.534 0-.253 1.256h-.283l.25-1.256zm.562 1.269a.66.66 0 0 1-.348-.086.27.27 0 0 1-.132-.287h.291a.14.14 0 0 0 .043.124.25.25 0 0 0 .159.047.3.3 0 0 0 .162-.038.13.13 0 0 0 .06-.112q0-.063-.064-.107a1 1 0 0 0-.193-.086 2 2 0 0 1-.197-.085.4.4 0 0 1-.129-.103.27.27 0 0 1-.05-.172q0-.116.063-.201a.4.4 0 0 1 .189-.133.8.8 0 0 1 .27-.047.8.8 0 0 1 .257.043c.077.03.129.073.172.128a.28.28 0 0 1 .042.189h-.3v-.022a.11.11 0 0 0-.047-.098.22.22 0 0 0-.137-.039.27.27 0 0 0-.154.043.13.13 0 0 0-.06.107q.001.045.034.078a.3.3 0 0 0 .086.06l.137.06.197.085a.4.4 0 0 1 .129.112.25.25 0 0 1 .055.171.3.3 0 0 1-.068.189.43.43 0 0 1-.184.133.8.8 0 0 1-.28.047z"/><path fill="url(#d)" fill-rule="evenodd" d="M12 17.143a5.144 5.144 0 0 0 3.637-8.78A5.143 5.143 0 1 0 12 17.144m0 2.143a7.285 7.285 0 1 0 0-14.57 7.285 7.285 0 0 0 0 14.57" clip-rule="evenodd"/><path fill="url(#e)" fill-rule="evenodd" d="M17.357 12a5.357 5.357 0 1 1-10.713 0 5.357 5.357 0 0 1 10.713 0M12 19.072a7.071 7.071 0 1 0 0-14.143 7.071 7.071 0 0 0 0 14.143M17.143 12a5.144 5.144 0 0 1-8.78 3.637A5.143 5.143 0 1 1 17.144 12m2.143 0a7.285 7.285 0 1 1-14.57 0 7.285 7.285 0 0 1 14.57 0" clip-rule="evenodd"/></g><defs><linearGradient id="b" x1="12" x2="12" y1="6.857" y2="17.143" gradientUnits="userSpaceOnUse"><stop stop-color="#F0D242"/><stop offset=".2" stop-color="#FEF76F"/><stop offset=".54" stop-color="#E1AF1B"/><stop offset="1" stop-color="#C27800"/></linearGradient><linearGradient id="c" x1="12.437" x2="12.437" y1="7.384" y2="16.928" gradientUnits="userSpaceOnUse"><stop stop-color="#B76A00"/><stop offset="1" stop-color="#603800"/></linearGradient><linearGradient id="d" x1="12" x2="12" y1="4.714" y2="19.286" gradientUnits="userSpaceOnUse"><stop stop-color="#C68A00"/><stop offset=".53" stop-color="#FCF571"/><stop offset="1" stop-color="#B27801"/></linearGradient><linearGradient id="e" x1="12" x2="12" y1="4.714" y2="19.286" gradientUnits="userSpaceOnUse"><stop stop-color="#AE714D"/><stop offset=".17" stop-color="#823300"/><stop offset=".53" stop-color="#F6EC27"/><stop offset="1" stop-color="#E4B000"/></linearGradient><clipPath id="a"><path fill="#fff" d="M0 0h24v24H0z"/></clipPath></defs></svg>
